X:2
T:Sten{\aa}ldersvalsens kusin
R:vals
Z:id:hn-vals-2
M:3/4
L:1/8
K:Amix
AAA | A2 cA cd | e3 eee | e2 f2 d2 | d2 c2 cd | c2 BG BG | A3:|
|:Acd | e2 ^g2 fd | ef ed cd | e2 ^g2 fd | ef e2 cd |
e2 ^g2 fd | ef ed cd | e2 ^g2 fd | e3:|
